X: 1
T: Clarke's
M: 4/4
L: 1/8
R: strathspey
K: Dmaj
d2 dB AFFA|GEEG FD D2|d2 dB AF F2|faeg fddc|
d2 dB AFFA|GEEG FD D2|d2 dB AF F2|faeg fdde|
fdad fdad|(3cBA eA fAeA|fdad f2 de|faeg fdde|
fdad fdad|(3cBA eA fAeA|(3Bcd (3cde (3def (3efg|(3fga (3bag (3fgf (3edc|
